!!!!SEGMENT: sonata11-1e.krn
!!!COM: Mozart, Wolfgang Amadeus
!!!CDT: 1756/01/27/-1791/12/05/
!!!CNT: German
!!!OTL: Piano Sonata No. 11 in A major
!!!SCT1: K<sup>1</sup> 331
!!!SCT2: K<sup>6</sup> 300i
!!!OMV: 1e
!!!OMD: VAR.IV.
!!!ODT: 1783
**kern	**kern	**dynam
*part1	*part1	*
*staff2	*staff1	*staff1/2
*ICklav	*ICklav	*
*Ipiano	*Ipiano	*
*LH	*RH	*
*I"	*I"	*
*>[A,A,B,B]	*>[A,A,B,B]	*>[A,A,B,B]
*>norep[A,B]	*>norep[A,B]	*>norep[A,B]
*>A	*>A	*>A
*clefF4	*clefG2	*
*k[f#c#g#]	*k[f#c#g#]	*
*A:	*A:	*
*M6/8	*M6/8	*
*MM72	*MM72	*
=1-	=1-	=1-
!	!	!LO:DY:t=%s legato
8AA 8A	16a 16cc#LL<	p
.	16e	.
!	!LO:TX:i:a:t=L.H.	!
8aa> (>8ccc#>L>	16a 16cc#	.
.	16e	.
8bb> 8ddd>J)	16b 16dd	.
.	16eJJ	.
8ccc#> (>8eee>L>	16cc# 16eeLL<	.
.	16e	.
8bb> 8ddd>	16b 16dd	.
.	16e	.
8aa> 8ccc#>J)	16a 16cc#	.
.	16eJJ	.
=2	=2	=2
8EE\ 8E\	16g# 16bLL<	.
.	16e	.
8gg#> (>8bb>L>	16g# 16b	.
.	16e	.
8aa> 8ccc#>J)	16a 16cc#	.
.	16eJJ	.
8bb> (>8ddd>L>	16b 16ddLL<	.
.	16e	.
8aa> 8ccc#>	16a 16cc#	.
.	16e	.
8gg#> 8bb>J)	16g# 16b	.
.	16eJJ	.
=3	=3	=3
8AA 8A	16e 16aLL<	.
.	16c#	.
8aa>/	16e 16a	.
.	16c#	.
8AA 8A	16e 16a	.
.	16c#JJ	.
8EE\ 8E\	16g# 16bLL<	.
.	16e	.
8bb>/	16g# 16b	.
.	16e	.
8EE\ 8E\	16g# 16b	.
.	16eJJ	.
=4	=4	=4
8aa> (>8ccc#>L>	16a 16cc#LL<	.
.	16e	.
8bb> 8ddd>	16b 16dd	.
.	16e	.
8aa> 8ccc#>J)	16a 16cc#	.
.	16eJJ	.
8gg#>/ 8bb>/	16g# 16bLL<	.
.	16e	.
8eL	(>16dd#	.
.	16ee)	.
8EJ	(>16dd#	.
.	16eeJJ)	.
!!LO:LB:g=original
=5	=5	=5
8AA 8A	16a 16cc#LL<	f
.	16e	.
8aa> (>8ccc#>L>	16a 16cc#	.
.	16e	.
8bb> 8dddn>J)	16b 16ddn	.
.	16eJJ	.
8ccc#> (>8eee>L>	16cc# 16eeLL<	.
.	16e	.
8bb> 8ddd>	16b 16dd	.
.	16e	.
8aa> 8ccc#>J)	16a 16cc#	.
.	16eJJ	.
=6	=6	=6
8EE\ 8E\	16g# 16bLL<	.
.	16e	.
8gg#> (>8bb>L>	16g# 16b	.
.	16e	.
8aa> 8ccc#>J)	16a 16cc#	.
.	16eJJ	.
8bb> (>8ddd>L>	16b 16ddLL<	.
.	16e	.
8aa> 8ccc#>	16a 16cc#	.
.	16e	.
8gg#> 8bb>J)	16g# 16b	.
.	16eJJ	.
=7	=7	=7
8AA 8A	16e 16aLL<	.
.	16c#	.
8cc#> (>8aa>L>	16e 16a	.
.	16c#	.
8ee> 8bb>J)	16g# 16b	.
.	16eJJ	.
8aa>/ 8ccc#>/	16a 16cc#LL<	.
.	16e	.
8FF# 8F#L<	16a 16cc#	.
.	16f#	.
8DD 8DJ	16b 16dd	.
.	16f#JJ	.
=8	=8	=8
8EE\ 8E\	16a 16cc#LL<	.
.	16e	.
8aa> (>8ccc#>L>	16a 16cc#	.
.	16e	.
8gg#> 8bb>J)	16g# 16b	.
.	16eJJ	.
8aa>/	16a'<LL<	.
.	16e'<	.
8AL	16c#'<	.
.	16e'<J	.
8AAJ	8aJ	.
!!LO:LB:g=original
=9:|!|:	=9:|!|:	=9:|!|:
*>B	*>B	*>B
(16ALL	(8.eeL	p
16c#	.	.
16e	.	.
16c#	32ff#LL	.
.	32eeJJJ	.
16e	32ddLLL	.
.	32cc#	.
16c#JJ	32b	.
.	32aJJJ	.
16ALL	16ee#LL	.
16d	16ff#J)	.
16f#	8ff#'J	.
16d	.	.
16f#	8r	.
16dJJ	.	.
=10	=10	=10
16ALL	(16aaLL	.
16d	16gg#	.
16f#	16bb	.
16d	16aa	.
16f#	16gg#	.
16dJJ	16ff#JJ	.
16ALL	16dd#LL	.
16c#	16eenJ)	.
16e	8ee'J	.
16c#	.	.
16e	8r	.
16c#JJ)	.	.
=11	=11	=11
!	!	!LO:DY:cj
8AA 8C#L	(8.eeL	sfp
8A 8c#J	.	.
.	32ff#LL	.
.	32eeJJJ	.
8r	32ddLLL	.
.	32cc#	.
.	32b	.
.	32aJJJ	.
!	!	!LO:DY:cj
8BB 8DL	16eeLK	sfp
.	8dd	.
8B 8dJ	.	.
.	32eeLL	.
.	32ddJJJ	.
8r	32cc#LLL<	.
.	32b	.
.	32a	.
.	32g#JJJ	.
=12	=12	=12
*^	*^	*
(>8c# 8eL	4.ryy	8aL	4ryy	.
8B 8d	.	8g#	.	.
8A 8c#J)	.	8aJ)	(8d#	.
(4A 4c#	4.E	(4a 4cc#	4.e)	sf >
8G# 8B)	.	8g# 8b)	.	.
.	.	.	.	]]
*	*	*v	*v	*
*v	*v	*	*
=13	=13	=13
8AA 8A	16a 16cc#LL<	p
.	16e	.
8aa> (>8ccc#>L>	16a 16cc#	.
.	16e	.
8bb> 8ddd>J)	16b 16dd	.
.	16eJJ	.
8ccc#> (>8eee>L>	16cc# 16eeLL<	.
.	16e	.
8bb> 8ddd>	16b 16dd	.
.	16e	.
8aa> 8ccc#>J)	16a 16cc#	.
.	16eJJ	.
!!LO:LB:g=original
=14	=14	=14
8EE\ 8E\	16g# 16bLL<	.
.	16e	.
8gg#> (>8bb>L>	16g# 16b	.
.	16e	.
8aa> 8ccc#>J)	16a 16cc#	.
.	16eJJ	.
8bb> (>8ddd>L>	16b 16ddLL<	.
.	16e	.
8aa> 8ccc#>	16a 16cc#	.
.	16e	.
8gg#> 8bb>J)	16g# 16b	.
.	16eJJ	.
=15	=15	=15
8AA 8A	16e 16aLL<	.
.	16c#	.
8cc#> (>8aa>L>	16e 16a	.
.	16c#	.
8ee> 8bb>J)	16g# 16b	.
.	16eJJ	.
8aa>/ 8ccc#>/	16a 16cc#LL<	.
.	16e	.
8FF# 8F#L<	16a 16cc#	.
.	16f#	.
8DD 8DJ	16b 16dd	.
.	16f#JJ	.
=16	=16	=16
8EE\ 8E\	16a 16cc#LL<	.
.	16e	.
8aa> (>8ccc#>L>	16a 16cc#	.
.	16e	.
8gg#> 8bb>J)	16g# 16b	.
.	16eJJ	.
*^	*	*
(>8bb>L>	4gg#>\	16g# 16bLL<	.
.	.	16e	.
8bb#>	.	16g# 16b#	.
.	.	16e	.
8ccc#>J)	8aa>\	16a 16cc#	.
.	.	16eJJ	.
*v	*v	*	*
=17	=17	=17
8AA 8A	16a 16cc#LL<	f
.	16e	.
8aa> (>8ccc#>L>	16a 16cc#	.
.	16e	.
8bbn> 8ddd>J)	16bn 16dd	.
.	16eJJ	.
8ccc#>/ 8eee>/	16cc# 16eeLL<	.
.	16a	.
8AA 8AL<	16cc# 16ee	.
.	16a	.
8DD 8DJ	16dd 16ff#	.
.	16aJJ	.
=18	=18	=18
8EE\ 8E\	16a 16cc#LL<	.
.	16e	.
8aa> (>8ccc#>L>	16a 16cc#	.
.	16e	.
8gg#> 8bb>J)	16g# 16b	.
.	16eJJ	.
8aa>/	16a'<LL<	.
.	16e'<	.
8AL	16c#'<	.
.	16e'<J	.
8AAJ	8aJ	.
==:|!	==:|!	==:|!
*-	*-	*-
!!!RDF**kern: > = above
!!!RDF**kern: < = below
!!!YOR: Alte Mozart-Ausgabe, Band 20, Breitkopf &amp; H&auml;rtel 1877-1883.
!!!YOY: 1878
!!!YEC: 2018 Craig Stuart Sapp
!!!YEM: Licence: (CC BY-NC-SA 4.0) https://creativecommons.org/licenses/by-nc-sa/4.0
!!!YER: 2018
!!!URL-github: https://github.com/craigsapp/mozart-piano-sonatas/blob/main/kern/sonata11-1e.krn
!!!URL-vhv: https://verovio.humdrum.org/?file=mozart/sonatas/sonata11-1e.krn
!!!URL-pdf: https://github.com/craigsapp/mozart-piano-sonatas/blob/master/reference-edition/sonata11-1e.pdf
!!!URL-youtube: https://www.youtube.com/watch?v=wNMypdCkonk&t=398s András Schiff
!!!URL-wikipedia: https://en.wikipedia.org/wiki/Piano_Sonata_No._11_(Mozart)#I._Andantino_grazioso
!!!ENC: Craig Stuart Sapp
!!!END: 2009/09/29
!!!EED: Craig Stuart Sapp
!!!EEV: 2024/06/03
!!!EFL: 47/69
!!!AGN: piano sonata
!!!AFR: theme and variations
!!!title: @{OTL}, K 331 (300i), mvmt. @{OMV}
!!!filter-hand: shed -ke "s/^LH$/color:dodgerblue/I; s/^RH$/color:crimson/I"
